X: 172
T: Honble Mrs John Ramsay's Strathspey
R: strathspey
Q: "Slow"
B: William Shepherd "2nd Collection" 1800 p.17 #2
F: http://imslp.org/wiki/File:PMLP73094-Shepherd_Collections_HMT.pdf
C: William Shepherd (17??-1812)
Z: 2012 John Chambers <jc:trillian.mit.edu>
M: C
L: 1/16
K: Dm
cB |\
A3FD3F C3FA,3C | F3d cAFC E2G2 G2cB |\
A3FD3F C3FA,3C | B,3dc3C [F6A,6] :|
c2 |\
T(fe).f.g {f}a3f b3g (fe).d.c | Tf3ga3f e3cTc3A |\
T(fe).f.g a3f (d3b)(c3a) | (B3g) G2cB A3FTF3c |
T(fe).f.g {f}a3f b3g (fe).d.c | Tf3ga3f (gf).e.d Tc3A |\
(f3a)(d3b) (c3a)(B3g) | TG3d (cB).A.G A2[F2A,2]T[F2A,2] |]
